X:1
T:The Tenpenny Bit
M:6/8
L:1/8
O:Trad. (15.10.2014/NS)
R: jig
K:Ador
|: "Am" eAA eAA | "G"  BAB GBd | "Am" eAA eAA | "Gm" def gfg |
   "Am" eAA eAA | "G"  BAB GAB |      def ged | "Am" BAG A3 :|
|: "Am" eaa eaa | "G"  bag ged | "Am" eaa eaa | "Em" bgf g3  |
   "Am" eaa eaa | "Em" bag ged | "G"  def ged | "Am" BAG A3 :|
